governance/ui/src/components/Socials/twitter.svg

<svg width="18" height="14" viewBox="0 0 18 14" fill="none" xmlns="http://www.w3.org/2000/svg">
    <path
        d="M15.9584 3.54803C15.9691 3.69721 15.9691 3.84638 15.9691 3.99694C15.9691 8.58433 12.3575 13.875 5.75345 13.875V13.8723C3.80261 13.875 1.89229 13.3347 0.25 12.3158C0.533669 12.3488 0.818759 12.3653 1.10456 12.366C2.72126 12.3674 4.29174 11.8429 5.56363 10.877C4.02727 10.8488 2.68002 9.88019 2.20937 8.46609C2.74756 8.56646 3.3021 8.54584 3.83034 8.40628C2.15534 8.07905 0.950284 6.65602 0.950284 5.00337C0.950284 4.98825 0.950284 4.97381 0.950284 4.95938C1.44937 5.22817 2.00818 5.37735 2.57978 5.39385C1.00218 4.37435 0.515895 2.34498 1.46857 0.758328C3.29144 2.92725 5.98096 4.2458 8.86812 4.38535C8.57876 3.17955 8.97405 1.91601 9.90682 1.06837C11.3529 -0.246046 13.6272 -0.178675 14.9865 1.21892C15.7906 1.06562 16.5613 0.780327 17.2666 0.376102C16.9985 1.17974 16.4376 1.86238 15.6882 2.29617C16.3999 2.21505 17.0952 2.03081 17.75 1.74964C17.268 2.4481 16.6608 3.0565 15.9584 3.54803Z"
        fill="white" />
</svg>

<svg width="18" height="14" fill="none" viewBox="0 0 18 14" xmlns="http://www.w3.org/2000/svg">
  <path fill="#fff" d="M15.958 3.548c.011.15.011.298.011.449 0 4.587-3.611 9.878-10.216 9.878v-.003A10.4 10.4 0 0 1 .25 12.316q.426.05.855.05a7.37 7.37 0 0 0 4.459-1.489c-1.537-.028-2.884-.997-3.355-2.41a3.7 3.7 0 0 0 1.621-.06C2.155 8.078.95 6.655.95 5.002V4.96c.5.27 1.058.418 1.63.435C1.002 4.374.516 2.345 1.469.758c1.822 2.17 4.512 3.488 7.4 3.627a3.4 3.4 0 0 1 1.038-3.317c1.446-1.314 3.72-1.247 5.08.15a7.4 7.4 0 0 0 2.28-.842 3.5 3.5 0 0 1-1.579 1.92 7.3 7.3 0 0 0 2.062-.546 7.2 7.2 0 0 1-1.792 1.798"/>
</svg>
